svg/github.svg

<svg xmlns="http://www.w3.org/2000/svg" width="24" height="24" viewBox="0 0 24 24">
	<g fill="none" stroke="currentColor" stroke-width="2" stroke-linecap="round" stroke-linejoin="round">
		<path d="M12 4C13.6683 4 14.6122 4.39991 15 4.5C15.5255 4.07463 16.9375 3 18.5 3C18.8438 4 18.7863 5.21921 18.5 6C19.25 7 19.5 8 19.5 9.5C19.5 11.6875 19.017 13.0822 18 14C16.983 14.9178 15.8887 15.3749 14.5 15.5C15.1506 16.038 15 17.3743 15 18C15 18.7256 15 21 15 21M12 4C10.3317 4 9.38784 4.39991 9 4.5C8.47455 4.07463 7.0625 3 5.5 3C5.15625 4 5.21371 5.21921 5.5 6C4.75 7 4.5 8 4.5 9.5C4.5 11.6875 4.98301 13.0822 6 14C7.01699 14.9178 8.1113 15.3749 9.5 15.5C8.84944 16.038 9 17.3743 9 18C9 18.7256 9 21 9 21" stroke-dasharray="30" stroke-dashoffset="30">
			<animate attributeName="stroke-dashoffset" values="30;0" dur="0.6s" fill="freeze" />
		</path>
		<path d="M9 19C7.59375 19 6.15625 18.4375 5.3125 17.8125C4.46875 17.1875 4.21875 16.1562 3 15.5" stroke-dasharray="10" stroke-dashoffset="10">
			<animate attributeName="stroke-dashoffset" values="10;0" begin="0.7s" dur="0.2s" fill="freeze" />
		</path>
	</g>
</svg>

<svg xmlns="http://www.w3.org/2000/svg" width="24" height="24" viewBox="0 0 24 24">
	<g fill="none" stroke="currentColor" stroke-width="2" stroke-linecap="round" stroke-linejoin="round">
		<path d="M12 4c1.67 0 2.61 0.4 3 0.5c0.53 -0.43 1.94 -1.5 3.5 -1.5c0.34 1 0.29 2.22 0 3c0.75 1 1 2 1 3.5c0 2.19 -0.48 3.58 -1.5 4.5c-1.02 0.92 -2.11 1.37 -3.5 1.5c0.65 0.54 0.5 1.87 0.5 2.5c0 0.73 0 3 0 3M12 4c-1.67 0 -2.61 0.4 -3 0.5c-0.53 -0.43 -1.94 -1.5 -3.5 -1.5c-0.34 1 -0.29 2.22 0 3c-0.75 1 -1 2 -1 3.5c0 2.19 0.48 3.58 1.5 4.5c1.02 0.92 2.11 1.37 3.5 1.5c-0.65 0.54 -0.5 1.87 -0.5 2.5c0 0.73 0 3 0 3" stroke-dasharray="32" stroke-dashoffset="32">
			<animate attributeName="stroke-dashoffset" values="32;0" dur="0.7s" fill="freeze" />
		</path>
		<path d="M9 19c-1.41 0 -2.84 -0.56 -3.69 -1.19c-0.84 -0.63 -1.09 -1.66 -2.31 -2.31" stroke-dasharray="12" stroke-dashoffset="12">
			<animate attributeName="stroke-dashoffset" values="12;0" begin="0.8s" dur="0.2s" fill="freeze" />
		</path>
	</g>
</svg>
